!!!COM: Haydn, Franz Joseph
!!!OTL: String Quartet in F Minor
!!!OPS: Opus 55
!!!ONM: No. 2
!!!OMD: Andante
!!!OMV: 1
!!!SCT: H III:61
!!!SCA: Thematisch-bibliographisches Werkevererzeichnis (A. van Hoboken)
!!!YOR: Dover Edition; reprint of Eulenburg Edition
!!!ENC: Frances Bennion
!!!CDT: 1732/3/31/-1809/5/31/
!!!CNT: Oesterreich
!!!YEC: Copyright (c) 1994, 2000 Center for Computer Assisted Research in the Humanities
!!!YEM: Rights to all derivative editions reserved.
!!!YEM: Refer to licensing agreement for further details.
!!!YEN: United States of America
**kern	**kern	**kern	**kern
*k[b-e-a-d-]	*k[b-e-a-d-]	*k[b-e-a-d-]	*k[b-e-a-d-]
*f:	*f:	*f:	*f:
*clefF4	*clefC3	*clefF	*clefF
*M2/4	*M2/4	*M2/4	*M2/4
[2F	2c	2a-	4cc
.	.	.	8ff
.	.	.	8aa-
=2	=2	=2	=2
2F]	4.d-	4.b-	8.gg
.	.	.	16ff
.	.	.	8ee
.	8c	8a-	8ff
=3	=3	=3	=3
8E	8c	8g	8cc
8F	8f	8a-	8cc
8E	8e	8g	8cc
8G	8d	8f	16ff
.	.	.	16b
=4	=4	=4	=4
4.C	4d	4f	4b
.	8c	8e	8cc
8D	8r	8f	8b
=5	=5	=5	=5
2E	4d-	2g	4b-
.	8B-	.	8g
.	8B-	.	8dd-
=6	=6	=6	=6
4.F	8.A-	8.a-	8.cc
.	16B-	16g	16b-
.	8c	8f	8a-
8D-	8B-	8f	8b-
=7	=7	=7	=7
2E-	4.G	4.d-	8e-
.	.	.	8e-
.	.	.	8e-
.	8B-	8d-	16.f
.	.	.	32g
=8	=8	=8	=8
8AA-	4B-	4d-	4g
8A-	.	.	.
8AA-	8A-	8c	8a-
8r	8r	8r	8r
=9	=9	=9	=9
4.F	4e-	2a	4cc
.	8c	.	8ee-
8E-	8c	.	8gg-
=10	=10	=10	=10
4D-	8.d-	2b-	8.ff
.	16c	.	16ee-
4G-	8B-	.	8dd-
.	8B-	.	8dd-
=11	=11	=11	=11
8E-	8e-	8g-	8cc
8E-	8e-	8g-	8cc
8F	8c	8e-	8a
8F	8c	8e-	8a
=12	=12	=12	=12
8BB-	4B-	4.d-	4.b-
8B-	.	.	.
8BB-	8r	.	.
8r	8a	8e-	8cc
=13	=13	=13	=13
8r	8b-	4.f	4.dd-
8B-	4r	.	.
4BB-	.	.	.
.	8b-	8g	8ee
=14	=14	=14	=14
8r	8a-	4.a-	4.ff
8B	4r	.	.
8BB	.	.	.
8BB	8B	8ff	8aa-
=15	=15	=15	=15
8C	8c	8ee	8gg
16.c	16.c	16.cc	16.ccc
32c	32c	32cc	32ccc
16.A-	16.A-	16.a-	16.aa-
32A-	32A-	32a-	32aa-
16.F	16.F	16.f	16.ff
32F	32F	32f	32ff
=16	=16	=16	=16
8C	4C	4c	4cc
16c	.	.	.
16d-	.	.	.
16c	4r	4r	4r
16B-	.	.	.
16A-	.	.	.
16G	.	.	.
=17	=17	=17	=17
[2F	2c	2a-	4cc
.	.	.	8ff
.	.	.	8aa-
=18	=18	=18	=18
2F]	4.d-	4.b-	8.gg
.	.	.	16ff
.	.	.	8ee
.	8c	8a-	8ff
=19	=19	=19	=19
4E	4g	4.cc	8.ccc
.	.	.	16bb-
8E-	8f	.	8aa
8D-	8f	8b-	8bb-
=20	=20	=20	=20
4.BB-	[2d-	4.g-	8.ddd-
.	.	.	16bb-
.	.	.	8gg-
8C-	.	8a-	8ff
=21	=21	=21	=21
8BB-	2d-_	8g-	8gg-
8C-	.	8a-	8ff
8BB-	.	8g-	8gg-
8AA-	.	8f	8aa-
=22	=22	=22	=22
2GG-	2d-_	8.g-	8.bb-
.	.	16a-	16aa-
.	.	[4b-	8gg-
.	.	.	8ff
=23	=23	=23	=23
4GG	4d-]	4b-]	8ee
.	.	.	8ee
4AA-	4c	4a-	8ff
.	.	.	8ff
=24	=24	=24	=24
8BB-	8B-	8f	8dd-
8BB-	8B-	8f	8dd-
8C	8A-	8f	8cc
8D-	8A-	8f	8b
=25	=25	=25	=25
8C	8A-	8f	8cc
8r	8r	8r	8r
8C	8G	8B-	8e
8r	16.r	16.r	16.r
.	32G	32B-	32e
=26	=26	=26	=26
8FF	4G	4B-	4e
8F	.	.	.
8FF	8F	8A-	8f
8r	8r	8r	8r
=27	=27	=27	=27
4F	16f	16a	4cc
.	16c	16c	.
.	16f	16a	.
.	16c	16c	.
4r	16f	16a	8ff
.	16c	16c	.
.	16f	16a	8aa
.	16c	16c	.
=28	=28	=28	=28
4C	16e	16b-	8.gg
.	16c	16c	.
.	16e	16b-	.
.	16c	16c	16ee
8F	16f	16a	8ff
.	16c	16c	.
8r	16f	16a	8ff
.	16c	16c	.
=29	=29	=29	=29
4C	16e	16g	8gg
.	16c	16c	.
.	16f	16a	8aa
.	16c	16c	.
8r	16g	16b-	8bb-
.	16c	16c	.
8EE	16g	16cc	8ccc
.	16c	16c	.
=30	=30	=30	=30
8FF	16g	16b-	8bb-
.	16c	16c	.
8AA	16f	16a	8aa
.	16c	16c	.
8C	16e	16g	4gg
.	16c	16c	.
8r	16e	16g	.
.	16c	16c	.
=31	=31	=31	=31
4.D	16d	16f	4.ff
.	16A	16A	.
.	16d	16f	.
.	16A	16A	.
.	16d	16f	.
.	16A	16A	.
8C#	16e	16a	8aa
.	16A	16A	.
=32	=32	=32	=32
8D	16d	16g	8gg
.	16A	16A	.
8BB	16d	16f	8ff
.	16G	16G	.
8C	16c	16e	8ee
.	16G	16G	.
8FF	16d	16f	8dd
.	16A	16A	.
=33	=33	=33	=33
2GG	16c	16e	8cc
.	16G	16G	.
.	16c	16e	8cc
.	16G	16G	.
.	16c	16e	8cc
.	16G	16G	.
.	16d	16f	16dd
.	16G	16G	16b
=34	=34	=34	=34
4C	16d	16f	4b
.	16G	16G	.
.	16d	16f	.
.	16G	16G	.
4r	16c	16e	8cc
.	16G	16G	.
.	16B-	16e	8r
.	16G	16G	.
=35	=35	=35	=35
4C	16d	16f	4b
.	16G	16G	.
.	16d	16f	.
.	16G	16G	.
4r	16c	16e	8cc
.	16G	16G	.
.	16E	16e	8r
.	16G	16G	.
=36	=36	=36	=36
4C	16e	16g	4bb-
.	16c	16c	.
.	16e	16g	.
.	16c	16c	.
4r	16e	16g	8gg
.	16c	16c	.
.	16e	16g	8ccc
.	16c	16c	.
=37	=37	=37	=37
4F	16f	16a	8.aa
.	16c	16c	.
.	16f	16a	.
.	16c	16c	16gg
4r	16f	16a	16ff
.	16c	16c	16gg
.	16f	16a	16aa
.	16c	16c	16bb-
=38	=38	=38	=38
4F	16e-	16a	4ccc
.	16c	16c	.
.	16e-	16a	.
.	16c	16c	.
4F#	16d	16a	8aa
.	16c	16c	.
.	16d	16a	8ddd
.	16c	16c	.
=39	=39	=39	=39
4G	16d	16a	8ccc
.	16c	16c	.
.	16d	16g	8bb
.	16B	16B	.
8E	16c	16g	8bb-
.	16B-	16B-	.
8F	16c	16f	8aa
.	16A	16A	.
=40	=40	=40	=40
4.BB-	16d	16g	8.gg
.	16G	16G	.
.	16d	16g	.
.	16G	16G	16aa
.	16d	16g	16bb-
.	16G	16G	16aa
8BB	16d	16f	16gg
.	16G	16G	16ff
=41	=41	=41	=41
4C	16c	16e	4.cc
.	16G	16G	.
.	16e	16g	.
.	16c	16c	.
4r	16f	16a	.
.	16c	16c	.
.	16d	16f	16ff
.	16B	16d	16b
=42	=42	=42	=42
4C	16c	16e	4.cc
.	16G	16c	.
.	16e	16g	.
.	16c	16c	.
4r	16f	16a	.
.	16c	16c	.
.	16d	16f	16ff
.	16B	16d	16b
=43	=43	=43	=43
4C	16c	16e	8.cc
.	16G	16G	.
.	16c	16e	.
.	16G	16G	16cc
4r	16B-	16e	16b
.	16G	16G	16cc
.	16B-	16e	16dd
.	16G	16G	16cc
=44	=44	=44	=44
4FF	16A	16f	4cc
.	16F	16A	.
.	16A	16f	.
.	16F	16A	.
4r	16f	16a	8ff
.	16c	16c	.
.	16f	16a	8aa
.	16c	16c	.
=45	=45	=45	=45
4C	16e	16b-	8.gg
.	16c	16c	.
.	16e	16b-	.
.	16c	16c	16ee
8F	16f	16a	8ff
.	16c	16c	.
8r	16f	16a	8ff
.	16c	16c	.
=46	=46	=46	=46
4C	16e	16g	8gg
.	16c	16c	.
.	16f	16a	8aa
.	16c	16c	.
8r	16g	16b-	8bb-
.	16c	16c	.
8EE	16g	16cc	8ccc
.	16c	16c	.
=47	=47	=47	=47
8FF	16g	16b-	8bb-
.	16c	16c	.
8AA	16f	16a	8aa
.	16c	16c	.
8C	16e	16g	4gg
.	16c	16c	.
8r	16e	16g	.
.	16c	16c	.
=48	=48	=48	=48
4.G	16g	16b-	4.bb-
.	16d	16d	.
.	16g	16b-	.
.	16d	16d	.
.	16g	16b-	.
.	16d	16d	.
8F#	16a	16dd	8ddd
.	16d	16d	.
=49	=49	=49	=49
8G	16a	16cc	8ccc
.	16d	16d	.
8E	16g	16b-	8bb-
.	16c	16c	.
8F	16f	16a	8aa
.	16c	16c	.
8BB-	16d	16g	8gg
.	16G	16d	.
=50	=50	=50	=50
2C	16c	16f	8ff
.	16A	16A	.
.	16c	16f	8ff
.	16A	16A	.
.	16c	16f	8ff
.	16A	16A	.
.	16B-	16e	16gg
.	16G	16G	16ee
=51	=51	=51	=51
8FF	16B-	16e	4ee
.	16G	16G	.
8F	16B-	16e	.
.	16G	16G	.
8FF	8A	8f	8ff
8r	8r	8r	8r
=52	=52	=52	=52
[2F	2c	2a-	4cc
.	.	.	8ff
.	.	.	8aa-
=53	=53	=53	=53
2F]	4.d-	4.b-	8.gg
.	.	.	16ff
.	.	.	8ee
.	8c	8a-	8ff
=54	=54	=54	=54
8E	8c	8g	8cc
8F	8f	8a-	8cc
8E	8e	8g	8cc
8G	8d	8f	16ff
.	.	.	16b
=55	=55	=55	=55
4.C	4d	4f	4b
.	8c	8e	8cc
8D	8r	8f	8b
=56	=56	=56	=56
2E	4d-	2g	4b-
.	8B-	.	8g
.	8B-	.	8dd-
=57	=57	=57	=57
4.F	8.A-	8.a-	8.cc
.	16B-	16g	16b-
.	8c	8f	8a-
8D-	8B-	8f	8b-
=58	=58	=58	=58
2E-	4.G	4.d-	8e-
.	.	.	8e-
.	.	.	8e-
.	8B-	8d-	16.f
.	.	.	32g
=59	=59	=59	=59
8AA-	4B-	4d-	4g
8A-	.	.	.
8AA-	8A-	8c	8a-
8r	8r	8r	8r
=60	=60	=60	=60
4FF	4F 4A-	4a-	8.cc
.	.	.	16e
4r	4r	4r	24f
.	.	.	24a-
.	.	.	24cc
.	.	.	24ff
.	.	.	24aa-
.	.	.	24ccc
=61	=61	=61	=61
2F	4.d-	4.b-	8aa-
.	.	.	16.gg
.	.	.	32ff
.	.	.	16ee
.	.	.	8gg
.	8c	8a-	.
.	.	.	16ff
=62	=62	=62	=62
8E	8c	8g	16r
.	.	.	16cc
8F	8f	8a-	16r
.	.	.	16cc
8E	8e	8g	16r
.	.	.	16cc
8G	8d	8f	16r
.	.	.	16b
=63	=63	=63	=63
4.C	8d	4f	8b
.	16B	.	16dd
.	16c	.	16cc
.	8c	8e	8cc
8D	8r	8f	8b
=64	=64	=64	=64
2E	4d-	2g	8.b-
.	.	.	32g
.	.	.	32a-
.	4B-	.	24b-
.	.	.	24dd-
.	.	.	24ee
.	.	.	24gg
.	.	.	24bb-
.	.	.	24ddd-
=65	=65	=65	=65
4.F	4c	4a-	24bb
.	.	.	24ccc
.	.	.	24gg
.	.	.	24aa-
.	.	.	24ee
.	.	.	24ff
.	8r	8r	24b
.	.	.	24cc
.	.	.	24g
8D-	8B-	8f	24a-
.	.	.	24a
.	.	.	24b-
=66	=66	=66	=66
2E-	4.G	2d-	24d
.	.	.	24e-
.	.	.	24f
.	.	.	24g-
.	.	.	24g
.	.	.	24a-
.	.	.	24a
.	.	.	24b-
.	.	.	24cc
.	8B-	.	24dd-
.	.	.	24b-
.	.	.	24g
=67	=67	=67	=67
8AA-	4B-	4d-	4g
8A-	.	.	.
8AA-	8A-	8c	8a-
8r	8r	8r	8r
=68	=68	=68	=68
4.F	4e-	2a	24ee-
.	.	.	24b
.	.	.	24cc
.	.	.	24a
.	.	.	24cc
.	.	.	24ee-
.	8c	.	24gg-
.	.	.	24ff
.	.	.	24ee-
8E-	8g-	.	24dd-
.	.	.	24ee-
.	.	.	24cc
=69	=69	=69	=69
4D-	4f	2b-	24ff
.	.	.	24cc
.	.	.	24dd-
.	.	.	24ff
.	.	.	24a
.	.	.	24b-
4G-	4d-	.	24ee-
.	.	.	24dd-
.	.	.	24b-
.	.	.	24ee-
.	.	.	24dd-
.	.	.	24b-
=70	=70	=70	=70
8E-	8e-	8g-	24cc
.	.	.	24ee-
.	.	.	24gg-
8E-	8e-	8g-	24ff
.	.	.	24ee-
.	.	.	24dd-
8F	8f	8e-	24cc
.	.	.	24b-
.	.	.	24a
8F	8c	8e-	24g-
.	.	.	24f
.	.	.	24a
=71	=71	=71	=71
24BB-	8B-	8d-	6..b-
24D-	.	.	.
24E-	.	.	.
24F	8r	8r	.
24G	.	.	.
24A	.	.	.
8B-	8b-	8d-	.
.	.	.	24f
.	.	.	24b-
8r	8a	8e-	24cc
.	.	.	24f
.	.	.	24cc
=72	=72	=72	=72
24BB-	8b-	8f	6..dd-
24D-	.	.	.
24E-	.	.	.
24F	8r	8r	.
24G	.	.	.
24A	.	.	.
8B-	8f	8f	.
.	.	.	24f
.	.	.	24dd-
8r	8b-	8g	24ee
.	.	.	24b-
.	.	.	24ee
=73	=73	=73	=73
24BB	8a-	8a-	6..ff
24D	.	.	.
24F	.	.	.
24A-	4r	4r	.
24B	.	.	.
24d	.	.	.
8f	.	.	.
.	.	.	24ee
.	.	.	24ff
8BB	8B	8B	24aa-
.	.	.	24ff
.	.	.	24b
=74	=74	=74	=74
24C	24c	24c	24cc
24E	24e	24e	24ee
24G	24g	24g	24gg
24c	24cc	24cc	24ccc
24G	24g	24g	24gg
24E	24e	24e	24ee
24c	24cc	24cc	24ccc
24B-	24b-	24b-	24bb-
24G	24g	24g	24gg
24c	24cc	24cc	24ccc
24A-	24a-	24a-	24aa-
24F	24f	24f	24ff
=75	=75	=75	=75
8.C	4c	8c	4cc
.	.	4.r	.
16D-	.	.	.
16C	4r	.	4r
16BB-	.	.	.
16AA-	.	.	.
16GG	.	.	.
=76	=76	=76	=76
4FF	4A- 4F	4a-	8.cc
.	.	.	16e
4r	4r	4r	24f
.	.	.	24a-
.	.	.	24cc
.	.	.	24ff
.	.	.	24aa-
.	.	.	24ccc
=77	=77	=77	=77
2F	4.d-	4.b-	8aa-
.	.	.	16.gg
.	.	.	32ff
.	.	.	16ee
.	.	.	8gg
.	8c	8a-	.
.	.	.	16ff
=78	=78	=78	=78
4E	4g	[6..cc	8.ccc
.	.	.	16bb-
8E-	4f	.	16aa
.	.	48cc]	.
.	.	16a	8ccc
8D-	.	8b-	.
.	.	.	16bb-
=79	=79	=79	=79
4.BB-	[2d-	4.g-	8.ddd-
.	.	.	16bb-
.	.	.	16gg-
.	.	.	16gg-
8C-	.	8a-	16aa-
.	.	.	16ff
=80	=80	=80	=80
8BB-	2d-_	8g-	16gg-
.	.	.	16gg-
8C-	.	8a-	16aa-
.	.	.	16ff
8BB-	.	8g-	16gg-
.	.	.	16gg
8AA-	.	8f	16aa-
.	.	.	16aa
=81	=81	=81	=81
2GG-	2d-_	8.g-	8.bb-
.	.	16a-	16aa-
.	.	[4b-	16aa-
.	.	.	16gg-
.	.	.	16gg-
.	.	.	16ff
=82	=82	=82	=82
4GG	4d-]	4b-]	24ff
.	.	.	24ee
.	.	.	24gg
.	.	.	24bb-
.	.	.	24gg
.	.	.	24ee
4AA-	4c	4a-	24gg
.	.	.	24ff
.	.	.	24gg
.	.	.	24aa-
.	.	.	24ff
.	.	.	24cc
=83	=83	=83	=83
8BB-	8B-	8f	16ee-
.	.	.	16dd-
8BB-	8B-	8f	16r
.	.	.	16dd-
8C	8A-	8f	16r
.	.	.	16cc
8D-	8A-	8f	16r
.	.	.	16b
=84	=84	=84	=84
8C	8A-	8f	24cc
.	.	.	24ee
.	.	.	24ff
8r	8r	8r	24aa-
.	.	.	24ff
.	.	.	24cc
8C	8B-	8e	24a
.	.	.	24b-
.	.	.	24cc
8r	8r	8r	24dd-
.	.	.	24b-
.	.	.	24e
=85	=85	=85	=85
8FF	4G	4B-	4e
8F	.	.	.
8FF	8F	8A-	8f
8r	8r	8r	8r
=86	=86	=86	=86
4F	16f	16a	4cc
.	16c	16c	.
.	16f	16a	.
.	16c	16c	.
4r	16f	16a	8ff
.	16c	16c	.
.	16f	16a	8aa
.	16c	16c	.
=87	=87	=87	=87
4C	16e	16b-	8.gg
.	16c	16c	.
.	16e	16b-	.
.	16c	16c	16ee
8F	16f	16a	8ff
.	16c	16c	.
8r	16f	16a	8ff
.	16c	16c	.
=88	=88	=88	=88
4C	16e	16g	8gg
.	16c	16c	.
.	16f	16a	8aa
.	16c	16c	.
8r	16g	16b-	8bb-
.	16c	16c	.
8EE	16g	16cc	8ccc
.	16c	16c	.
=89	=89	=89	=89
8FF	16g	16b-	8bb-
.	16c	16c	.
8AA	16f	16a	8aa
.	16c	16c	.
8C	16e	16g	4gg
.	16c	16c	.
8r	16e	16g	.
.	16c	16c	.
=90	=90	=90	=90
4.D	16d	16f	4.ff
.	16A	16A	.
.	16d	16f	.
.	16A	16A	.
.	16d	16f	.
.	16A	16A	.
8C#	16e	16a	8aa
.	16A	16A	.
=91	=91	=91	=91
8D	16d	16g	8gg
.	16A	16A	.
8BB	16d	16f	8ff
.	16G	16G	.
8C	16c	16e	8ee
.	16G	16G	.
8FF	16d	16f	8dd
.	16A	16A	.
=92	=92	=92	=92
2GG	16c	16e	8cc
.	16G	16G	.
.	16c	16e	8cc
.	16G	16G	.
.	16c	16e	8cc
.	16G	16G	.
.	16d	16f	16dd
.	16G	16G	16b
=93	=93	=93	=93
4C	16d	16f	4b
.	16G	16G	.
.	16d	16f	.
.	16G	16G	.
4r	16c	16e	8cc
.	16G	16G	.
.	16B-	16e	8r
.	16G	16G	.
=94	=94	=94	=94
4FF	16A	16f	8.cc
.	16c	16A	.
.	16A	16f	.
.	16c	16A	16cc
4r	16f	16a	16ff
.	16c	16c	16cc
.	16f	16a	16ff
.	16c	16c	16aa
=95	=95	=95	=95
4C	16e	16b-	16gg
.	16c	16c	16gg
.	16e	16b-	16bb-
.	16c	16c	16ee
8F	16f	16a	16ff
.	16c	16c	16ee
8r	16f	16a	16ff
.	16c	16c	16ff#
=96	=96	=96	=96
4C	16e	16g	16gg
.	16c	16g#	16gg#
.	16f	16a	16aa
.	16c	16b-	16bb-
8r	16g	16b	16bb
.	16c	16cc	16ccc
8EE	16e	16dd	16ddd
.	16g	16cc	16ccc
=97	=97	=97	=97
8FF	16g	16b-	8bb-
.	16c	16c	.
8AA	16f	16a	8aa
.	16c	16c	.
8C	16e	16g	8gg
.	16c	16c	.
8r	16e	16g	8r
.	16c	16c	.
=98	=98	=98	=98
4.D	16d	16f	8.ff
.	16A	16A	.
.	16d	16f	.
.	16A	16A	48gg
.	.	.	48ff
.	.	.	48ee
.	16d	16f	16ff
.	16A	16A	16gg
8C#	16e	16a	16aa
.	16A	16A	16aa
=99	=99	=99	=99
8D	16d	16g	16gg
.	16A	16A	16ff#
8BB	16d	16f	16r
.	16G	16G	16ff
8C	16c	16e	16r
.	16G	16G	16ee
8FF	16d	16f	16r
.	16A	16A	16dd
=100	=100	=100	=100
2GG	16c	16e	32cc
.	.	.	32ee
.	16G	16G	32gg
.	.	.	32bb
.	16c	16e	32ccc
.	.	.	32gg
.	16G	16G	32eee
.	.	.	32ccc
.	16c	16e	32ggg
.	.	.	32eee
.	16G	16G	32ggg
.	.	.	32eee
.	16d	16f	16.fff
.	16G	16G	.
.	.	.	32bb
=101	=101	=101	=101
4.CC	16B	16d	4ddd
.	16G	16B	.
.	16B	16d	.
.	16G	16B	.
.	16c	16e	8ccc
.	16G	16G	.
8r	16c	16e	8r
.	16G	16G	.
=102	=102	=102	=102
4C	16e	16g	8.bb-
.	16c	16c	.
.	16e	16g	.
.	16c	16c	48ccc
.	.	.	48bb-
.	.	.	48aa
4r	16e	16g	16gg
.	16c	16c	16aa
.	16e	16g	16bb-
.	16c	16c	16ccc
=103	=103	=103	=103
4F	16f	16a	8.aa
.	16c	16c	.
.	16f	16a	.
.	16c	16c	16gg
4r	16f	16a	16ff
.	16c	16c	32aa
.	.	.	32gg
.	16f	16a	32bb-
.	.	.	32aa
.	16c	16c	32ccc
.	.	.	32bb-
=104	=104	=104	=104
4F	16e-	16a	8.ccc
.	16c	16c	.
.	16e-	16a	.
.	16c	16c	16bb-
4F#	16d	16a	24aa
.	.	.	24bb-
.	16c	16c	.
.	.	.	24bb
.	16d	16a	24ccc
.	.	.	24ccc#
.	16c	16c	.
.	.	.	24ddd
=105	=105	=105	=105
4G	16d	16a	8ccc
.	16c	16c	.
.	16d	16g	8bb
.	16B	16B	.
8E	16c	16g	8bb-
.	16B-	16B-	.
8F	16c	16f	8aa
.	16A	16A	.
=106	=106	=106	=106
4.BB-	16d	16g	8.gg
.	16G	16G	.
.	16d	16g	.
.	16G	16G	16aa
.	16d	16g	16bb-
.	16G	16G	16aa
8BB	16d	16f	16gg
.	16G	16G	16ff
=107	=107	=107	=107
4C	16c	16e	4.cc
.	16G	16G	.
.	16e	16g	.
.	16c	16c	.
4r	16f	16a	.
.	16c	16c	.
.	16d	16f	16ff
.	16B	16d	16b
=108	=108	=108	=108
4C	16c	16e	4.cc
.	16G	16c	.
.	16e	16g	.
.	16c	16c	.
4r	16f	16a	.
.	16c	16c	.
.	16d	16f	24ff
.	.	.	24dd
.	16B	16d	.
.	.	.	24b
=109	=109	=109	=109
4C	16c	16e	8.cc
.	16G	16G	.
.	16c	16e	.
.	16G	16G	16cc
4r	16B-	16e	16b
.	16G	16G	16cc
.	16B-	16e	16dd
.	16G	16G	16cc
=110	=110	=110	=110
4FF	16A	16f	8.cc
.	16F	16A	.
.	16A	16f	.
.	16F	16A	16cc
4r	16f	16a	16ff
.	16c	16c	16cc
.	16f	16a	16ff
.	16c	16c	16aa
=111	=111	=111	=111
4C	16e	16b-	16gg
.	16c	16c	16gg
.	16e	16b-	16bb-
.	16c	16c	16ee
8F	16f	16a	16ff
.	16c	16c	16ee
8r	16f	16a	16ff
.	16c	16c	16ff#
=112	=112	=112	=112
4C	16e	16g	16gg
.	16c	16g#	16gg#
.	16f	16a	16aa
.	16c	16b-	16bb-
8r	16g	16b	16bb
.	16c	16cc	16ccc
8EE	16e	16dd	16ddd
.	16g	16cc	16ccc
=113	=113	=113	=113
8FF	16g	16b-	8bb-
.	16c	16c	.
8AA	16f	16a	8aa
.	16c	16c	.
8C	16e	16g	8gg
.	16c	16c	.
8r	16e	16g	8r
.	16c	16c	.
=114	=114	=114	=114
4.G	16g	16b-	8.bb-
.	16d	16d	.
.	16g	16b-	.
.	16d	16d	48ccc
.	.	.	48bb-
.	.	.	48aa
.	16g	16b-	16bb-
.	16d	16d	16ccc
8F#	16a	16dd	16ddd
.	16d	16d	16ddd
=115	=115	=115	=115
8G	16a	16cc	16ccc
.	16d	16d	16bb
8E	16g	16b-	16r
.	16c	16c	16bb-
8F	16f	16a	16r
.	16c	16c	16aa
8BB-	16d	16g	16r
.	16G	16d	16gg
=116	=116	=116	=116
2C	16c	16f	32ff
.	.	.	32aa
.	16A	16A	32ccc
.	.	.	32aa
.	16c	16f	32ff
.	.	.	32cc
.	16A	16A	32a
.	.	.	32f
.	16c	16f	8c
.	16A	16A	.
.	16B-	16e	8B- 8e
.	16G	16G	.
=117	=117	=117	=117
8FF	16B-	16e	4B- 4e
.	16G	16G	.
8F	16B-	16e	.
.	16G	16G	.
8FF	8A	8f	8f 8A
8r	8r	8r	8r
=118	=118	=118	=118
16r	4c	2r	4cc
16E	.	.	.
16F	.	.	.
16G	.	.	.
16A-	8f	.	8ff
16B-	.	.	.
16c	8a-	.	8aa-
16F	.	.	.
=119	=119	=119	=119
16B-	8.g	2r	8.gg
16c	.	.	.
16B-	.	.	.
16d-	16f	.	16ff
16c	8e	.	8ee
16B-	.	.	.
16A-	8f	.	8ff
16F	.	.	.
=120	=120	=120	=120
16E	8c	16g	8cc
16G	.	16e	.
16F	8c	16a-	8cc
16A-	.	16f	.
16E	8c	16g	8cc
16G	.	16e	.
16D	16f	16f	16ff
16F	16B	16d	16b
=121	=121	=121	=121
16C	4B	4f	4b
16D	.	.	.
16F	.	.	.
16E	.	.	.
16G	8c	8e	8cc
16F	.	.	.
16A-	8B	8r	8b
16G	.	.	.
=122	=122	=122	=122
16F	4B-	4g	4b-
16E	.	.	.
16d-	.	.	.
16c	.	.	.
16B-	8G	8e	8g
16G	.	.	.
16F	8d-	8b-	8dd-
16E	.	.	.
=123	=123	=123	=123
16F	8.c	4a-	8.cc
16G	.	.	.
16A-	.	.	.
16G	16B-	.	16b-
16F	8A-	8r	8a-
16E-	.	.	.
16D-	8B-	16f	8b-
16BB-	.	16e-	.
=124	=124	=124	=124
16E-	16G	16d-	8e-
16F	16A-	16c	.
16G	16B-	16B-	8e-
16A-	16c	16A-	.
16B-	8d-	8.G	8e-
16c	.	.	.
16d-	8E-	.	16.f
16B-	.	16d-	.
.	.	.	32g
=125	=125	=125	=125
16A-	4A-	4d-	4g
16E-	.	.	.
16C	.	.	.
16E-	.	.	.
16AA-	4r	8c	8a-
16BB-	.	.	.
16AA-	.	8r	8r
16GG	.	.	.
=126	=126	=126	=126
16FF	4c	4.A	4cc
16E	.	.	.
16F	.	.	.
16A	.	.	.
16c	8e-	.	8ee-
16d-	.	.	.
16c	8g-	8B-	8gg-
16B-	.	.	.
=127	=127	=127	=127
16A	8.f	16c	8.ff
16F	.	16A	.
16G	.	16B-	.
16A	16e-	16c	16ee-
16B-	8d-	8d-	8dd-
16A-	.	.	.
16G-	8d-	8b-	8dd-
16F	.	.	.
=128	=128	=128	=128
16E-	8c	16g-	8cc
16C	.	16e-	.
16D-	8c	16f	8cc
16E-	.	16g-	.
16F	8A	16f	8a
16G-	.	16e-	.
16F	8A	16d-	8a
16E-	.	16c	.
=129	=129	=129	=129
16D-	16f	8.B-	4.b-
16E-	16g-	.	.
16D-	16f	.	.
16C	16e-	16c	.
16BB-	8d-	8d-	.
16D-	.	.	.
16F	8A	16e-	8cc
16A	.	16g-	.
=130	=130	=130	=130
16B-	16B-	4.f	4.dd-
16c	16c	.	.
16B-	16B-	.	.
16A-	16A-	.	.
16G	16G	.	.
16d-	16d-	.	.
16c	16c	8g	8ee
16B-	16B-	.	.
=131	=131	=131	=131
16A-	16c	4.a-	4.ff
16B-	16d-	.	.
16A-	16c	.	.
16G	16B-	.	.
16F	16A-	.	.
16D-	16d-	.	.
16C	16c	8ff	8aa-
16BB	16B	.	.
=132	=132	=132	=132
16C	16c	16ee-	16gg
16c	16cc	16cc	16ccc
16B	16b	16b	16bb
16c	16cc	16cc	16ccc
16A-	16a-	16a-	16aa-
16c	16cc	16cc	16ccc
16A-	16a-	16a-	16aa-
16F	16f	16f	16ff
=133	=133	=133	=133
16C	4c	8c	4cc
16BB	.	.	.
16C	.	4.r	.
16D-	.	.	.
16C	4r	.	4r
16BB-	.	.	.
16AA-	.	.	.
16GG	.	.	.
=134	=134	=134	=134
16FF	4c	2r	4cc
16E	.	.	.
16F	.	.	.
16G	.	.	.
16A-	8f	.	8ff
16B-	.	.	.
16c	8a-	.	8aa-
16F	.	.	.
=135	=135	=135	=135
16B-	8.g	2r	8.gg
16c	.	.	.
16B-	.	.	.
16d-	16f	.	16ff
16c	8e	.	8ee
16B-	.	.	.
16A-	8f	.	8ff
16F	.	.	.
=136	=136	=136	=136
16E	8.cc	16g	8.ccc
16C	.	16e	.
16D	.	16f	.
16E	16b-	16g	16bb-
16F	8a	16a	8aa
16E-	.	16cc	.
16D-	8b-	16b-	8bb-
16C	.	16a-	.
=137	=137	=137	=137
16BB-	8.dd-	4.g-	8.ddd-
16D-	.	.	.
16G-	.	.	.
16D-	16b-	.	16bb-
16BB-	8g-	.	8gg-
16D-	.	.	.
16C-	8f	8a-	8ff
16D-	.	.	.
=138	=138	=138	=138
16BB-	8g-	8g-	8gg-
16D-	.	.	.
16C-	8f	8a-	8ff
16D-	.	.	.
16BB-	8g-	8g-	8gg-
16D-	.	.	.
16AA-	8a-	8f	8aa-
16D-	.	.	.
=139	=139	=139	=139
16GG-	8.b-	4g-	8.bb-
16D-	.	.	.
16G-	.	.	.
16A-	16a-	.	16aa-
16B-	8g-	4r	8gg-
16d-	.	.	.
16A-	8f	.	8ff
16c	.	.	.
=140	=140	=140	=140
16G	8e	16b-	8ee
16B-	.	16g	.
16G	8e	16b-	8ee
16B-	.	16g	.
16A-	8f	16f	8ff
16F	.	16a-	.
16C	8f	16A-	8ff
16AA-	.	16c	.
=141	=141	=141	=141
16BB-	8d-	4B-	8dd-
16F	.	.	.
16BB-	8d-	.	8dd-
16F	.	.	.
16C	8c	4r	8cc
16F	.	.	.
16D-	8B	.	8b
16F	.	.	.
=142	=142	=142	=142
16C	8c	8a-	8cc
16F	.	.	.
16A-	8r	8r	8r
16c	.	.	.
16C	8G	8B-	8e
16E	.	.	.
16G	16.r	16.r	16.r
16c	.	.	.
.	32G	32B-	32e
=143	=143	=143	=143
16FF	4G	4B-	4e
16F	.	.	.
16E	.	.	.
16F	.	.	.
8FF	8F	8A-	8f
8r	8r	8r	8r
=144	=144	=144	=144
4F	16f	16a	4cc
.	16c	16c	.
.	16f	16a	.
.	16c	16c	.
4r	16f	16a	8ff
.	16c	16c	.
.	16f	16a	8aa
.	16c	16c	.
=145	=145	=145	=145
4C	16e	16b-	8.gg
.	16c	16c	.
.	16e	16b-	.
.	16c	16c	16ee
8F	16f	16a	8ff
.	16c	16c	.
8r	16f	16a	8ff
.	16c	16c	.
=146	=146	=146	=146
4C	16e	16g	8gg
.	16c	16c	.
.	16f	16a	8aa
.	16c	16c	.
8r	16g	16b-	8bb-
.	16c	16c	.
8EE	16g	16cc	8ccc
.	16c	16c	.
=147	=147	=147	=147
8FF	16g	16b-	8bb-
.	16c	16c	.
8AA	16f	16a	8aa
.	16c	16c	.
8C	16e	16g	4gg
.	16c	16c	.
8r	16e	16g	.
.	16c	16c	.
=148	=148	=148	=148
4.D	16d	16f	4.ff
.	16A	16A	.
.	16d	16f	.
.	16A	16A	.
.	16d	16f	.
.	16A	16A	.
8C#	16e	16a	8aa
.	16A	16A	.
=149	=149	=149	=149
8D	16d	16g	8gg
.	16A	16A	.
8BB	16d	16f	8ff
.	16G	16G	.
8C	16c	16e	8ee
.	16G	16G	.
8FF	16d	16f	8dd
.	16A	16A	.
=150	=150	=150	=150
2GG	16c	16e	8cc
.	16G	16G	.
.	16c	16e	8cc
.	16G	16G	.
.	16c	16e	8cc
.	16G	16G	.
.	16d	16f	16dd
.	16G	16G	16b
=151	=151	=151	=151
4C	16d	16f	4b
.	16G	16G	.
.	16d	16f	.
.	16G	16G	.
4r	16c	16e	8cc
.	16G	16G	.
.	16B-	16e	8r
.	16G	16G	.
=152	=152	=152	=152
4c	16F	16A	2r
.	16A	16c	.
.	16F	16A	.
.	16A	16c	.
8f	16F	16A	.
.	16A	16c	.
8a	16F	16A	.
.	16A	16c	.
=153	=153	=153	=153
8.g	16F	16B-	32ccc
.	.	.	32ddd
.	16B-	16e	32ccc
.	.	.	32ddd
.	16F	16B-	32ccc
.	.	.	32bb-
16e	16B-	16e	32aa
.	.	.	32gg
8f	16F	16A	8ff
.	16A	16f	.
8f	16F	16A	8r
.	16A	16f	.
=154	=154	=154	=154
8g	16C	8e	16r
.	16c	.	32ddd
.	.	.	32ccc
8a	16C	8f	16r
.	16c	.	32ddd
.	.	.	32ccc
8b-	16C	8g	16r
.	16c	.	32ddd
.	.	.	32ccc
8cc	16C	8a	16r
.	16c	.	32ddd
.	.	.	32ccc
=155	=155	=155	=155
8b-	16F	8g	32r
.	.	.	32ccc
.	16c	.	32fff
.	.	.	32eee
8a	16F	8f	32fff
.	.	.	32ccc
.	16c	.	32aa
.	.	.	32ff
4g	16C	4e	8ccc
.	16c	.	.
.	16C	.	8r
.	16c	.	.
=156	=156	=156	=156
4.f	16D	16f	32r
.	.	.	32aa
.	16A	16A	32bb
.	.	.	32ccc#
.	16F	16f	32ddd
.	.	.	32eee
.	16A	16A	32fff
.	.	.	32ggg
.	16D	16f	16aaa
.	16A	16d	16aaa
8a	16C#	16e	16aaa
.	16A	16c#	16aaa
=157	=157	=157	=157
8g	16D	16d	16r
.	16A	16A	16ggg
8f	16D	16B	16r
.	16B	16d	16fff
8e	16C	16e	16r
.	16c	16c	16eee
8d	16F	16A	16r
.	16A	16f	16ddd
=158	=158	=158	=158
8c	8G	8e	32ccc
.	.	.	32gg
.	.	.	32ccc
.	.	.	32eee
8c	8G	8e	32ggg
.	.	.	32eee
.	.	.	32ggg
.	.	.	32eee
8c	8G	8e	32ggg
.	.	.	32eee
.	.	.	32ggg
.	.	.	32eee
16.d	8G	16.d	16.fff
32B	.	32f	32bb
=159	=159	=159	=159
4B	16C	4f	4ddd
.	16c	.	.
.	16C	.	.
.	16c	.	.
8c	16C	8e	8ccc
.	16c	.	.
8r	16G	8r	8r
.	16E	.	.
=160	=160	=160	=160
4b-	16C	4g	2r
.	16c	.	.
.	16D	.	.
.	16c	.	.
8g	16E	8e	.
.	16c	.	.
8cc	16C	8e	.
.	16c	.	.
=161	=161	=161	=161
8.a	16F	4f	32ccc
.	.	.	32ddd
.	16c	.	32ccc
.	.	.	32ddd
.	16F	.	32ccc
.	.	.	32ddd
16g	16G	.	32ccc
.	.	.	32bb-
16f	8A	4r	16aa
16g	.	.	16bb-
16a	8r	.	16ccc
16b-	.	.	16ddd
=162	=162	=162	=162
4cc	16F	2r	32eee-
.	.	.	32ddd
.	16A	.	32eee-
.	.	.	32ddd
.	16F	.	32eee-
.	.	.	32fff
.	16A	.	32eee-
.	.	.	32ddd
8a	16F#	.	16ccc
.	16d	.	16bb-
8dd	16F#	.	16aa
.	16d	.	16ddd
=163	=163	=163	=163
8cc	16G	2r	16r
.	16d	.	16ccc
8b	16G	.	16r
.	16d	.	16bb
8b-	16E	.	16r
.	16c	.	16bb-
8a	16F	.	16r
.	16c	.	16aa
=164	=164	=164	=164
8g	4..B-	2r	32r
.	.	.	32ccc#
.	.	.	32ddd
.	.	.	32ccc#
16g	.	.	32ddd
.	.	.	32ccc#
16a	.	.	32ddd
.	.	.	32ccc#
16b-	.	.	16ddd
16a	.	.	16ccc
16g	.	.	32bb-
.	.	.	32aa
16f	16B	.	32gg
.	.	.	32ff
=165	=165	=165	=165
4.c	16C	8r	8ccc
.	16c	.	.
.	16C	32f	32aa
.	.	32e	32gg
.	16c	32d	32ff
.	.	32e	32gg
.	16C	8f	8aa
.	16c	.	.
16f	16C	16B	16fff
16B	16c	16f	16bb
=166	=166	=166	=166
4.c	16C	8e	8ccc
.	16c	.	.
.	16C	32f	32aa
.	.	32e	32gg
.	16c	32d	32ff
.	.	32e	32gg
.	16C	8f	8aa
.	16c	.	.
16f	16C	16B	16fff
16B	16c	16f	16bb
=167	=167	=167	=167
8.c	16C	4e	4ccc
.	16c	.	.
.	16D	.	.
16c	16c	.	.
16B	16E	4r	4r
16c	16c	.	.
16d	16B-	.	.
16c	16E	.	.
=168	=168	=168	=168
4c	16F	16A	2r
.	16A	16c	.
.	16F	16A	.
.	16A	16c	.
8f	16F	16A	.
.	16A	16c	.
8a	16F	16A	.
.	16A	16c	.
=169	=169	=169	=169
8.g	16F	16B-	32ccc
.	.	.	32ddd
.	16B-	16e	32ccc
.	.	.	32ddd
.	16F	16B-	32ccc
.	.	.	32bb-
16e	16B-	16e	32aa
.	.	.	32gg
8f	16F	16A	8ff
.	16A	16f	.
8f	16F	16A	8r
.	16A	16f	.
=170	=170	=170	=170
8g	16C	8e	16r
.	16c	.	32ddd
.	.	.	32ccc
8a	16C	8f	16r
.	16c	.	32ddd
.	.	.	32ccc
8b-	16C	8g	16r
.	16c	.	32ddd
.	.	.	32ccc
8cc	16C	8a	16r
.	16c	.	32ddd
.	.	.	32ccc
=171	=171	=171	=171
8b-	16F	8g	32r
.	.	.	32ccc
.	16c	.	32fff
.	.	.	32eee
8a	16F	8f	32fff
.	.	.	32ccc
.	16c	.	32aa
.	.	.	32ff
4g	16C	4e	8ccc
.	16c	.	.
.	16C	.	8r
.	16c	.	.
=172	=172	=172	=172
4.b-	16G	16b-	32r
.	.	.	32dd
.	16d	16d	32ee
.	.	.	32ff#
.	16B-	16b-	32gg
.	.	.	32aa
.	16d	16d	32bb-
.	.	.	32ccc
.	16G	16b-	16ddd
.	16d	16g	16ddd
8dd	16F#	16a	16ddd
.	16d	16f#	16ddd
=173	=173	=173	=173
8cc	16G	16g	16r
.	16d	16d	16ccc
8b-	16E	16g	16r
.	16c	16e	16bb-
8a	16F	16a	16r
.	16f	16f	16aa
8g	16B-	16d	16r
.	16d	16B-	16gg
=174	=174	=174	=174
8f	4.C	8A	32ff
.	.	.	32cc
.	.	.	32ff
.	.	.	32aa
8f	.	8a	32ccc
.	.	.	32aa
.	.	.	32ccc
.	.	.	32aa
8f	.	8a	32ccc
.	.	.	32aa
.	.	.	32ccc
.	.	.	32aa
16.g	8C	16.g	16.bb-
32e	.	32b-	32ee
=175	=175	=175	=175
4e	8F	4b-	4gg
.	8f	.	.
8f	8F	8a	8ff
8r	8r	8r	8r
=176	=176	=176	=176
16CC	4g	2r	4bb-
16C	.	.	.
16DD	.	.	.
16C	.	.	.
16EE	8e	.	8gg
16C	.	.	.
16CC	8e	.	8ccc
16C	.	.	.
=177	=177	=177	=177
16FF	4f	32cc	8.aa
.	.	32dd	.
16C	.	32cc	.
.	.	32dd	.
16FF	.	32cc	.
.	.	32dd	.
16GG	.	32cc	16gg
.	.	32b-	.
8AA	4r	16a	16ff
.	.	16b-	16gg
8r	.	16cc	16aa
.	.	16dd	16bb-
=178	=178	=178	=178
16FF	2r	32ee-	4ccc
.	.	32dd	.
16AA	.	32ee-	.
.	.	32dd	.
16FF	.	32ee-	.
.	.	32ff	.
16AA	.	32ee-	.
.	.	32dd	.
16FF#	.	16cc	8aa
16D	.	16b-	.
16FF#	.	16a	8ddd
16D	.	16dd	.
=179	=179	=179	=179
16GG	8.d	16r	8ccc
16D	.	16cc	.
16GG	.	16r	8bb
16D	32e	16b	.
.	32f	.	.
16EE	8g	16r	8bb-
16C	.	16b-	.
16FF	8f	16r	8aa
16C	.	16a	.
=180	=180	=180	=180
4..BB-	4.d	32r	8.gg
.	.	32cc#	.
.	.	32dd	.
.	.	32cc#	.
.	.	32dd	.
.	.	32cc#	.
.	.	32dd	16aa
.	.	32cc#	.
.	.	16dd	16bb-
.	.	16cc	16aa
.	8d	32b-	16gg
.	.	32a	.
16BB	.	32g	16ff
.	.	32f	.
=181	=181	=181	=181
16CC	8e	8cc	4.cc
16C	.	.	.
16CC	32f	32a	.
.	32e	32g	.
16C	32d	32f	.
.	32e	32g	.
16CC	8f	8a	.
16C	.	.	.
16CC	8d	8f	16ff
16C	.	.	16b
=182	=182	=182	=182
16CC	8c	8e	4.cc
16C	.	.	.
16CC	32f	32a	.
.	32e	32g	.
16C	32d	32f	.
.	32e	32g	.
16CC	8f	8a	.
16C	.	.	.
16CC	8d	8f	16ff
16C	.	.	16b
=183	=183	=183	=183
16CC	8c	8e	8.cc
16C	.	.	.
16DD	4.r	4.r	.
16C	.	.	16cc
16EE	.	.	16b
16C	.	.	16cc
16BB-	.	.	16dd
16EE	.	.	16cc
=184	=184	=184	=184
16FF	16A	2r	4cc
16AA	16c	.	.
16FF	16A	.	.
16AA	16c	.	.
16FF	16A	.	8ff
16AA	16c	.	.
16FF	16A	.	8aa
16AA	16c	.	.
=185	=185	=185	=185
16FF	16B-	32cc	8.gg
.	.	32dd	.
16BB-	16e	32cc	.
.	.	32dd	.
16FF	16B-	32cc	.
.	.	32b-	.
16BB-	16e	32a	16ee
.	.	32g	.
16FF	16A	8f	8ff
16AA	16f	.	.
16FF	16A	8r	8ff
16AA	16f	.	.
=186	=186	=186	=186
16CC	8e	16r	8gg
16C	.	32dd	.
.	.	32cc	.
16CC	8f	16r	8aa
16C	.	32dd	.
.	.	32cc	.
16CC	8g	16r	8bb-
16C	.	32dd	.
.	.	32cc	.
16CC	8a	16r	8ccc
16C	.	32dd	.
.	.	32cc	.
=187	=187	=187	=187
16FF	8g	32r	8bb-
.	.	32cc	.
16C	.	32ff	.
.	.	32ee	.
16FF	8f	32ff	8aa
.	.	32cc	.
16C	.	32a	.
.	.	32f	.
16CC	4e	8cc	4gg
16C	.	.	.
16CC	.	8r	.
16C	.	.	.
=188	=188	=188	=188
16GG	16b-	32r	4.bb-
.	.	32d	.
16D	16d	32e	.
.	.	32f#	.
16BB-	16b-	32g	.
.	.	32a	.
16D	16d	32b-	.
.	.	32cc	.
16GG	16b-	16dd	.
16D	16d	16dd	.
16FF#	16a	16dd	8ddd
16D	16f#	16dd	.
=189	=189	=189	=189
16GG	16g	16r	8ccc
16D	16d	16cc	.
16EE	16g	16r	8bb-
16C	16e	16b-	.
16FF	16a	16r	8aa
16F	16f	16a	.
16BB-	16d	16r	8gg
16D	16B-	16g	.
=190	=190	=190	=190
16CC	8A	32f	8ff
.	.	32c	.
16C	.	32f	.
.	.	32a	.
16CC	8A	32cc	8ff
.	.	32a	.
16C	.	32cc	.
.	.	32a	.
16CC	8A	32cc	8ff
.	.	32a	.
16C	.	32cc	.
.	.	32a	.
16CC	16.E	16.b-	16.gg
16C	.	.	.
.	32G	32e	32ee
=191	=191	=191	=191
16FF	8F	8f	8ff
16F	.	.	.
16FF	4.r	4.r	4.r
16F	.	.	.
16FF	.	.	.
16F	.	.	.
16FF	.	.	.
16F	.	.	.
=192	=192	=192	=192
16FF	16b-	16ee	4cc
16F	16g	16g	.
16FF	16b-	16ee	.
16F	16g	16g	.
16FF	16b-	16ee	8gg
16F	16g	16g	.
16FF	16b-	16ee	8bb-
16F	16g	16g	.
=193	=193	=193	=193
16FF	16a	16ff	8.aa
16F	16f	16a	.
16FF	16a	16ff	.
16F	16f	16a	16gg
16FF	16a	16ff	8ff
16F	16f	16a	.
16FF	16a	16ff	8ff
16F	16f	16a	.
=194	=194	=194	=194
16FF	16b-	16ee	16ee
16F	16g	16g	16ff
16FF	16b-	16ee	16gg
16F	16g	16g	16aa
16FF	16b-	16ee	16bb-
16F	16g	16g	16ccc
16FF	16b-	16ee	16ddd
16F	16g	16g	16eee
=195	=195	=195	=195
16FF	16a	16ff	8fff
16F	16f	16a	.
16FF	16a	16cc	8aaa
16F	16c	16f	.
16FF	16f	16a	8cccc
16F	16A	16c	.
16FF	16c	16f	8r
16F	16F	16A	.
=196	=196	=196	=196
16FF	16B-	16e	4c
16F	16G	16G	.
16FF	16B-	16e	.
16F	16G	16G	.
16FF	16B-	16e	8g
16F	16G	16G	.
16FF	16B-	16e	8b-
16F	16G	16G	.
=197	=197	=197	=197
16FF	16A	16f	8.a
16F	16F	16A	.
16FF	16A	16f	.
16F	16F	16A	16g
16FF	16A	16f	8f
16F	16F	16A	.
16FF	16A	16f	8f
16F	16F	16A	.
=198	=198	=198	=198
16FF	16B-	16e	16e
16F	16G	16G	16f
16FF	16B-	16e	16g
16F	16G	16G	16a
16FF	16B-	16e	16b-
16F	16G	16G	16a
16FF	16B-	16e	16b-
16F	16G	16G	16g
=199	=199	=199	=199
8FF	8A	8f	8f
4r	4r	4r	4r
8C	16.G	8e	16.b-
.	32B-	.	32g
=200	=200	=200	=200
8FF	8A	8f	8f
4r	4r	4r	4r
8C	16.G	8e	32b-
.	.	.	32a
.	.	.	32b-
.	32B-	.	32g
=201	=201	=201	=201
8FF	8A	8f	8f
4r	4r	4r	8..r
.	.	.	32cc
8C	16.G	8e	32b-
.	.	.	32a
.	.	.	32b-
.	32B-	.	32g
=202	=202	=202	=202
8FF	8A	8f	8f
8r	8r	8r	8r
8FF	8F	8c	8f 8A
16.r	16.r	16.r	16.r
32FF	32F	32c	32A 32f
=203	=203	=203	=203
8FF	8F	8A	8f 8A
4.r	4.r	4.r	4.r
==	==	==	==
*-	*-	*-	*-
!!!RWG1: This file contains only pitch and duration data.
!!!RWG2: Transposing instruments are not transposed.
!!!RWG3: Spines may have incompatible meters.
!!!RWG4: Durations of rests and tied notes may be interpreted.
!!!RWG: Key is interpreted using the Humdrum key tool.
!!!GTL: 6 Quators ("Tost I + II")
!!!OPT: The Razor
!!!AFT: stage1
!!!END: 1997/04/15
!!!KEY: 2241839251
!!!EMD: Converted from MuseData to Humdrum Dec 16, 2000, by Andreas Kornstaedt using muse2kern.
!!!EMD: Manual editing by Craig Sapp, Nov 2001
